X: 0611
M: 2/4
L: 1/16
K: G
|: Bc |\
dBed c2AB | cAdc B2GA | BGcB AGFG | Ad^cd D2 B=c |\
dBed c2AB | cAdc B2GF | Eedc BAGF | G2G2G2 :|

